images/why-lease-4.svg

<svg width="150" height="150" viewBox="0 0 150 150" fill="none" xmlns="http://www.w3.org/2000/svg">
<circle cx="75" cy="75" r="74.5" stroke="#0066FF"/>
<path d="M65.25 68.5V68H64.75H56.2071L60.2286 63.9786L71.4086 52.7986L74.5 49.7071L77.5914 52.7986L88.7714 63.9786L92.7929 68H84.25H83.75V68.5V90.75H65.25V68.5ZM74.8536 55.5397L74.5 55.1861L74.1464 55.5397L66.4147 63.2714L65.5611 64.125H66.7682H69.125V86.375V86.875H69.625H79.375H79.875V86.375V64.125H82.2317H83.4389L82.5853 63.2714L74.8536 55.5397ZM65.8175 97.1925C66.1808 96.8291 66.6736 96.625 67.1875 96.625H81.8125C82.3264 96.625 82.8192 96.8291 83.1825 97.1925C83.5459 97.5558 83.75 98.0486 83.75 98.5625C83.75 99.0764 83.5459 99.5692 83.1825 99.9325C82.8192 100.296 82.3264 100.5 81.8125 100.5H67.1875C66.6736 100.5 66.1808 100.296 65.8175 99.9325C65.4541 99.5692 65.25 99.0764 65.25 98.5625C65.25 98.0486 65.4541 97.5558 65.8175 97.1925Z" fill="#0066FF" stroke="white"/>
</svg>

<svg xmlns="http://www.w3.org/2000/svg" width="150" height="150" fill="none" viewBox="0 0 150 150"><circle cx="75" cy="75" r="74.5" stroke="#06f"/><path fill="#06f" stroke="#fff" d="M65.25 68.5V68h-9.043l4.022-4.021 11.18-11.18 3.091-3.092 3.091 3.092 11.18 11.18L92.793 68H83.75v22.75h-18.5zm9.604-12.96-.354-.354-.354.354-7.731 7.731-.854.854h3.564v22.75h10.75v-22.75h3.564l-.854-.854zm-9.037 41.652a1.94 1.94 0 0 1 1.37-.567h14.626a1.937 1.937 0 1 1 0 3.875H67.187a1.937 1.937 0 0 1-1.37-3.308Z"/></svg>
